X: 20326
T: John Brosnan's
R: polka
M: 2/4
K: Dmajor
|:[A,A]|D2 DB|AF FB|AF D>E|FE G/F/E/[C/F/]|
D3/2[C/E/] DB|AF F2|AF EF/E/|D2 D:|
|:c|d2 cd/c/|BA F>A|d2 c2|B2 AB/c/|
de/d/ c2|BA F>B|AF E[CF]|D2 D:|
|:A|d2 e2|f/g/f/e/ f>e|d2 A/B/c|d2- dA|
Bc/B/ AF|Bd/B/ A>F|AF E/D/[CF]|D2- D:|

